vsc/layout.svg

<svg viewBox="0 0 16 16" xmlns="http://www.w3.org/2000/svg" fill="currentColor" height="1em" width="1em">
  <path d="M3 2 2 3v10l1 1h4l1-1V3L7 2H3Zm0 11V3h4v10H3Zm7-10 1-1h3l1 1v3l-1 1h-3l-1-1V3Zm1 0v3h3V3h-3Zm-1 7 1-1h3l1 1v3l-1 1h-3l-1-1v-3Zm1 0v3h3v-3h-3Z"/>
</svg>

<svg viewBox="0 0 16 16" xmlns="http://www.w3.org/2000/svg" fill="currentColor" height="1em" width="1em">
  <path d="M3 2L2 3V13L3 14H7L8 13V3L7 2H3ZM3 13V3H7V13H3Z"/>
  <path d="M10 3L11 2H14L15 3V6L14 7H11L10 6V3ZM11 3V6H14V3H11Z"/>
  <path d="M10 10L11 9H14L15 10V13L14 14H11L10 13V10ZM11 10V13H14V10H11Z"/>
</svg>
